X:1
T:Bach Invention No 2 (Woot)
T:Bach Invention in C minor 
C:Johan Sebastian Bach
%%score { 1 | 2 }
L:1/8
M:4/4
K:Eb
V:1 treble nm="Piano" snm="Pno."
V:2 bass 
V:1
 z[Q:1/4=80] !3!c/!2!=B/ !3!c/!4!d/!5!e/!1!G/ !2!A/!3!_B/!2!A/!1!F/ !5!f/!4!e/!3!d/!2!c/ | %1
 !1!=B/!5!a/!4!g/!3!f/ !2!e/!1!d/!3!c/!2!B/ !3!c/!4!d/!1!c/!2!d/ !2!d3/2!1!c/4!2!d/4 | %2
 !3!e/!2!d/!1!c/!2!d/ !3!e/!4!f/!5!g !4!g!3!f z !3!f | %3
 !3!f!2!e z !4!d !5!e!2!A- A/!1!F/!4!B/!2!F/ | %4
 !1!G!4!e- e/!3!d/!4!e/!2!B/ !1!c/!2!e/!5!a/!4!g/ !3!f/!2!e/!1!d/!2!c/ | %5
 !1!B/!2!d/!5!g/!4!f/ !3!e/!2!d/!1!c/!3!B/ !2!A/!1!c/!5!f/!1!c/ !2!d>!2!d | %6
 !3!e/!1!B/!2!c/!1!B/ !5!g2- g/!1!B/!2!c/!1!B/ !5!a2- | %7
 a/!1!B/!3!e/!2!d/ !5!g/!1!f/!3!a/!2!g/ !5!c'/!4!b/!3!a/!2!g/ !1!f/!4!b/!3!a/!4!b/ | %8
 !2!g/!4!b/!3!a/!5!b/ !2!e/!4!g/!3!f/!4!g/ !1!c/!2!d/!3!e/!4!f/ !1!d/!2!e/!3!f/!4!g/ | %9
 !2!e/!1!f/!2!g/!3!a/ !4!b/!3!a/!5!c'/!4!b/ !3!a/!2!g/!1!f/!3!a/ !1!d2- | %10
 !1!d/!2!d/!5!g/!2!d/ !3!e/!1!c/!4!d/!2!B/ !1!c2- !1!c/!4!g/!3!^f/!5!=a/ | %11
 !1!c/!2!B/!1!c- !1!c/!3!^f/!2!=e/!1!d/ !5!b>!2!e !3!f>!4!g | %12
 !5!g!1!G/!2!^F/ !3!G/!4!=A/!5!B/!1!D/ !2!E/!3!=F/!2!E/!1!C/ !5!c/!4!B/!3!A/!2!G/ | %13
 !1!^F/!5!e/!4!d/!3!c/ !2!B/!1!=A/!3!G/!2!F/ !3!G/!4!A/!1!G/!2!A/ !2!A3/2!1!G/4!2!A/4 | %14
 !3!B/!2!=A/!1!G/!2!A/ !3!B/!4!c/!5!d !3!d!2!c z !3!c | %15
 !3!c!2!B z !4!=A !5!B!2!E- !2!E/!1!C/!4!F/!2!C/ | %16
 !1!D!4!B- !4!B/!3!=A/!4!B/!2!F/ !1!G/!2!B/!5!e/!4!d/ !3!c/!2!B/!1!A/!2!G/ | %17
 !1!F/!2!=A/!5!d/!4!c/ !3!B/!2!A/!1!G/!3!F/ !2!E/!1!G/!5!c/!1!G/ !2!A>!2!A | %18
 !3!B/!1!F/!2!G/!1!F/ !5!d2- !5!d/!1!F/!2!G/!1!F/ !5!e2- | %19
 !5!e/!1!F/!3!B/!2!=A/ !5!d/!1!c/!3!e/!2!d/ !5!g/!4!f/!3!e/!2!d/ !1!c/!4!f/!3!e/!4!f/ | %20
 !2!d/!1!c/!2!B/!1!=A/ !4!d/!3!c/!5!e/!4!d/ !3!c/!2!B/!1!A/!2!c/ !5!=f2- | %21
 !5!f/!1!G/!3!c/!2!=B/ !4!e/!1!d/!3!f/!2!e/ !5!_a/!4!g/!3!f/!2!e/ !1!d/!4!g/!3!f/!4!g/ | %22
 !2!e/!1!d/!3!c/!2!=B/ !3!c/!4!d/!5!e/!1!G/ !2!A/!3!_B/!2!A/!1!F/ !5!f/!4!e/!3!d/!2!c/ | %23
 !1!=B/!5!a/!4!g/!3!f/ !2!e/!1!d/!3!c/!2!B/ !3!c/!4!d/!1!c/!2!d/ !2!d3/2!1!c/4!2!d/4 | %24
 !3!e/!2!d/!1!c/!2!d/ !3!e/!4!f/!5!g !3!g!2!f z !3!f | %25
 !3!f!2!e/!1!d/ !3!g/!2!f/!4!a/!3!g/ !4!g>!5!a !2!d>!1!c | !1!c8 | %27
V:2
 z8 | z8 | %2
 z !2!C/!3!=B,/ !2!C/!1!D/!2!E/!5!G,/ !3!A,/!2!_B,/!3!A,/!5!F,/[K:treble] !1!F/!2!E/!3!D/!4!C/ | %3
 !5!=B,/!2!A/!1!G/!2!F/ !3!E/!1!D/!2!C/!3!B,/ !2!C/!1!D/!4!C/!3!D/ !3!D3/2!4!C/4!3!D/4 | %4
 !2!E/!3!D/!4!C/!3!D/ !2!E/!1!F/!3!G !3!G!4!F z !2!F | %5
 !2!F!3!E z[K:bass] !2!D !1!E!3!A,- A,/!5!F,/!2!B,/!5!F,/ | %6
 !4!G,!1!E- E/!3!D/!2!E/!5!B,/[K:treble] !4!C/!2!E/!1!A/!2!G/ !1!F/!2!E/!3!D/!4!C/ | %7
 !5!B,/!3!D/!1!G/!2!F/ !3!E/!1!D/!2!C/!3!B,/ !4!A,/!2!C/!1!F/!4!C/ !3!D>!3!D | %8
 !2!E/!5!B,/!4!C/!5!B,/ !1!G2- G/!5!B,/!4!C/!5!B,/ !1!A2- | %9
 A/!5!B,/!2!E/!3!D/ !1!G/!4!F/!2!A/!3!G/ !1!c/!2!B/!3!A/!4!G/ !5!F/!2!B/!3!A/!2!B/ | %10
 !4!G[K:bass]!4!E,/!3!F,/ !2!G,/!1!=A,/!2!B,/!5!D,/ !3!E,/!2!F,/!3!E,/!5!C,/ !1!C/!2!B,/!3!A,/!4!G,/ | %11
 !5!^F,/!2!E/!1!D/!2!C/ !3!B,/!1!=A,/!2!G,/!3!F,/ !2!G,/!1!A,/!4!G,/!3!A,/ !3!A,3/2!4!G,/4!3!A,/4 | %12
 !2!B,/!3!=A,/!4!G,/!3!A,/ !2!B,/!1!C/!3!D !3!D!4!C z !2!C | %13
 !2!C!3!B, z !2!=A, !1!B,!3!E,- !3!E,/!5!C,/!2!F,/!5!C,/ | %14
 !4!D,!1!B,- !1!B,/!3!=A,/!2!B,/!5!F,/ !4!G,/!2!B,/!1!E/!2!D/ !1!C/!2!B,/!3!A,/!4!G,/ | %15
 !5!F,/!3!=A,/!1!D/!2!C/ !3!B,/!1!A,/!2!G,/!3!F,/ !4!E,/!2!G,/!1!C/!4!G,/ !3!A,>!3!A, | %16
 !2!B,/!5!F,/!4!G,/!5!F,/ !1!D2- !1!D/!5!F,/!4!G,/!5!F,/ !1!E2- | %17
 !1!E/!5!F,/!2!B,/!3!=A,/[K:treble] !1!D/!4!C/!2!E/!3!D/ !1!G/!2!F/!3!E/!4!D/ !5!C/!1!F/!2!E/!1!F/ | %18
 !3!D/F/!2!E/F/[K:bass] !4!B,/!1!D/!2!C/!1!D/ !5!G,/!4!=A,/!3!B,/!2!C/ !4!A,/!3!B,/!2!C/!1!D/ | %19
[K:treble] !3!B,/!2!C/!1!D/!3!E/ !2!F/!3!E/!1!G/!2!F/ !3!E/!4!D/!5!C/!2!E/[K:bass] !5!=A,2- | %20
 !1!A,/!5!D,/!1!G,/!4!^F,/ !2!B,/!3!=A,/!1!C/!4!B,/ !2!E/!1!D/!2!C/!3!B,/ !4!A,/!1!D/!2!C/!1!D/ | %21
 !5!=B,/!2!F/!3!E/!1!D/ !2!C/!3!_B,/!4!_A,/!1!G,/ !2!=F,/!3!E,/!4!D,/!5!C,/ !1!G,!5!G,, | %22
 !2!C,>!1!D, !3!E,/!2!F,/!1!G, !3!G,!4!F, z !2!F, | %23
 !2!F,!3!E,- !3!E,/!2!F,/!3!E,/!1!D,/ !2!C,/!3!B,,/!4!A,,/!1!G,,/ !2!F,,/!3!E,,/!2!F,,/!1!G,,/ | %24
 !5!C,,!1!C,/!3!=B,,/ !2!C,/!1!D,/!2!E,/!5!G,,/ !3!A,,/!2!_B,,/!3!A,,/!5!F,,/ !1!F,/!2!E,/!3!D,/!4!C,/ | %25
 !5!=B,,/!2!A,/!1!G,/!2!F,/ !3!E,/!1!D,/!2!C,/!3!B,,/ !1!C,/!3!G,,/!2!A,,/!4!F,,/ !3!G,,!2!G,, | %26
 !5!C,,8 | %27

